X: 447
T: A Tune For Rosemary Hall
R: reel
M: 4/4
K: Dmajor
"D" dcA"Bm"B BABc|"D" dcA"F♯m"f affe|"D" dcA"Bm"B BAAc|"D"dAF"A"A A4|
"G" GFB,"D"D DDEF|"G"GFF"Em"E E2 DF|"G"GAA"Bm"B Bccd|"E"e5 f2:|
|:"G"gAAf AAdc|"D"dABd dcBA|"G"gAAf AAab|"G"baga a3 a|
"A"agf"F♯m"f zedc|"Bm"B d2 c"A" c3 A|"Bm"BAF"G"G GFED|"G"B,DD"E"E E4:|
|:"G"GG,G,F G,G,EG,|"D"DEED EFGA|"G"GG,G,F G,G,GG,|"Bm"G,GFG BdBA|
"G"GG,G,F G,G,EG,|"G"G,DG,G, "Am"=CD"Bm"B,D|"A"A,5 A,B,|=CDE"G"G GABA:|

